!!!OTL: 10. Dobranoch (mazltov)
!!!Genre:	Dobranoch (mazltov)
!!!Mode:	Altered Dorian
!!!Listening/dance:	listening
!!!One_Mode:	yes
!!!Orig_tonic: C
**kern
*I"P1
*clefG2
*k[b-]
*g:dor
*M3/4
*>A
=1
2d
4g
=2
2b-
4dd
=3
(8.cc#XL
16eeJk
4dd)
4dd
=4
2dd
12ddL
12cc#X
12ddJ
=5
4ee
4dd
4cc#X
=6
4b-
4a
(16b-LL
16aJ)
8gJ
=7
(8.cc#XL
16eeJk
4dd)
4dd
=8
4.gg
8dd
8b-L
8gJ
=9
2d
4g'
=10
2b-
4dd
=11
[2.cc#Xt
=12
2cc#]
12b-L
12a
12b-J
=13
4ee
4dd
4cc#X
=14
4b-
4a
(8ddL
8f#XJ)
*>A1
=15
4.g
8g
8aL
8b-J
=16
4.cc#Xt
8b-
8aL
8gJ
*>A2
=17:|!
2.g
=18
2.G
=19!|:
*>B
4dd
4.gg
8ee
=20
4.ff
8ee
(16ffLL
16eeJ)
8ddJ
=21
4dd
4.ff
8ee
=22
4.dd
8cc#X
16ddLL
16cc#J
8b-J
=23
4b-
4ee
4dd
=24
4.cc#X
8b-
8aL
8gJ
=25
(8.cc#XL
16eeJk
4dd)
4dd
=26
2gg
4dd
=27
4dd
4.gg
8ee
=28
4.ff
8ee
(16ffLL
16eeJ
8ddJ)
=29
4dd
4.ff
8ee
=30
4.dd
(8cc#X
16ddLL
16cc#J
8b-J)
=31
4b-
4ee
4dd
=32
4.cc#Xt
8b-
8aL
8b-J
=33
2.g
=34
2.G
=35:|!|:
*>C
4cc#X
4dd
(qdd/
8cc#L)
8b-J
=36
4cc#X
(8qee/
2dd)
=37
4g
8r
8g
8aL
8b-J
=38
4.cc#
8b-
8aL
8gJ
=39
4cc#X
4dd
8cc#L
8b-J
=40
4cc#X
(8qee/
2dd)
=41
4cc#X
8r
8ddL
8ee
8ffJ
=42
4.gg
8ff
8eeL
8ddJ
=43
4cc#X
4dd
8cc#L
8b-J
=44
4cc#X
(8qee/
2dd)
=45
4.g
8g
8aL
8b-J
=46
4.cc#X
8b-
(8aL
8gJ)
=47
4.bb-
8aa
8ggL
8bb-J
=48
4.aa
8gg
8ff#XL
8aaJ
=49
4.gg
8dd
8b-L
8ddJ
*>C1
=50
2g
4g
*>C2
=51:|!
2.g
==
*-
